dist/assets/images/scroll_1.svg

<svg xmlns="http://www.w3.org/2000/svg" width="168" height="167" viewBox="0 0 168 167" fill="none">
  <path d="M81.552 2.09517C82.9125 0.763822 85.0875 0.763822 86.448 2.09517L95.1691 10.6297C96.4717 11.9044 98.4145 12.2676 100.09 11.5495L111.305 6.74171C113.054 5.99172 115.082 6.77743 115.87 8.51032L120.919 19.619C121.673 21.2781 123.354 22.3186 125.175 22.2541L137.37 21.8224C139.272 21.7551 140.88 23.2204 140.988 25.1208L141.683 37.3033C141.787 39.1228 142.978 40.7 144.7 41.2979L156.227 45.3005C158.025 45.9249 158.995 47.8719 158.409 49.6832L154.657 61.2942C154.096 63.0284 154.637 64.9294 156.027 66.1088L165.33 74.0052C166.781 75.2371 166.981 77.4028 165.781 78.8803L158.088 88.3517C156.939 89.7663 156.756 91.7343 157.626 93.336L163.448 104.06C164.356 105.733 163.761 107.825 162.108 108.769L151.513 114.821C149.93 115.725 149.049 117.495 149.282 119.302L150.837 131.405C151.079 133.293 149.769 135.029 147.886 135.312L135.82 137.129C134.018 137.4 132.557 138.731 132.121 140.501L129.199 152.348C128.743 154.196 126.894 155.341 125.036 154.926L113.128 152.26C111.35 151.862 109.507 152.576 108.461 154.069L101.456 164.06C100.364 165.619 98.2256 166.019 96.6437 164.96L86.5028 158.173C84.9882 157.16 83.0118 157.16 81.4972 158.173L71.3563 164.96C69.7744 166.019 67.6364 165.619 66.5437 164.06L59.5393 154.069C58.4931 152.576 56.6502 151.862 54.8717 152.26L42.964 154.926C41.1064 155.341 39.2572 154.196 38.8014 152.348L35.8793 140.501C35.4429 138.731 33.9823 137.4 32.1801 137.129L20.1138 135.312C18.2315 135.029 16.9207 133.293 17.1633 131.405L18.7183 119.302C18.9506 117.495 18.0696 115.725 16.4871 114.821L5.89175 108.769C4.23892 107.825 3.6437 105.733 4.55191 104.06L10.374 93.336C11.2435 91.7343 11.0612 89.7663 9.91213 88.3517L2.21869 78.8803C1.01855 77.4028 1.21924 75.2371 2.67043 74.0052L11.9732 66.1088C13.3627 64.9294 13.9035 63.0284 13.3431 61.2942L9.59064 49.6832C9.00528 47.8719 9.97477 45.9249 11.7729 45.3005L23.3001 41.2979C25.0218 40.7 26.2128 39.1228 26.3167 37.3033L27.012 25.1208C27.1205 23.2204 28.7278 21.7551 30.6301 21.8224L42.8248 22.2541C44.6462 22.3186 46.3266 21.2781 47.0807 19.619L52.1299 8.51032C52.9175 6.77743 54.9457 5.99172 56.6952 6.74171L67.9105 11.5495C69.5855 12.2676 71.5283 11.9044 72.8309 10.6297L81.552 2.09517Z" stroke="#FE921F"/>
</svg>

<svg xmlns="http://www.w3.org/2000/svg" width="168" height="167" fill="none"><path d="M81.552 2.095a3.5 3.5 0 0 1 4.896 0l8.721 8.535a4.5 4.5 0 0 0 4.921.92l11.215-4.808a3.5 3.5 0 0 1 4.565 1.768l5.049 11.109a4.5 4.5 0 0 0 4.256 2.635l12.195-.432a3.5 3.5 0 0 1 3.618 3.299l.695 12.182a4.5 4.5 0 0 0 3.017 3.995l11.527 4.002a3.5 3.5 0 0 1 2.182 4.383l-3.752 11.611a4.498 4.498 0 0 0 1.37 4.815l9.303 7.896a3.5 3.5 0 0 1 .451 4.875l-7.693 9.472a4.5 4.5 0 0 0-.462 4.984l5.822 10.724a3.5 3.5 0 0 1-1.34 4.709l-10.595 6.052a4.498 4.498 0 0 0-2.231 4.481l1.555 12.103a3.5 3.5 0 0 1-2.951 3.907l-12.066 1.817a4.498 4.498 0 0 0-3.699 3.372l-2.922 11.847a3.501 3.501 0 0 1-4.163 2.578l-11.908-2.666a4.499 4.499 0 0 0-4.667 1.809l-7.005 9.991a3.5 3.5 0 0 1-4.812.9l-10.141-6.787a4.502 4.502 0 0 0-5.006 0l-10.14 6.787a3.5 3.5 0 0 1-4.813-.9l-7.005-9.991a4.5 4.5 0 0 0-4.667-1.809l-11.908 2.666a3.501 3.501 0 0 1-4.163-2.578l-2.922-11.847a4.499 4.499 0 0 0-3.699-3.372l-12.066-1.817a3.5 3.5 0 0 1-2.95-3.907l1.554-12.103a4.5 4.5 0 0 0-2.23-4.481l-10.596-6.052a3.5 3.5 0 0 1-1.34-4.709l5.822-10.724a4.5 4.5 0 0 0-.462-4.984L2.22 78.88a3.5 3.5 0 0 1 .451-4.875l9.303-7.896a4.5 4.5 0 0 0 1.37-4.815l-3.752-11.61a3.5 3.5 0 0 1 2.182-4.383L23.3 41.297a4.5 4.5 0 0 0 3.017-3.995l.695-12.182a3.5 3.5 0 0 1 3.618-3.299l12.195.432a4.5 4.5 0 0 0 4.256-2.635L52.13 8.51a3.5 3.5 0 0 1 4.565-1.768L67.91 11.55a4.5 4.5 0 0 0 4.92-.92l8.722-8.535Z" stroke="#FE921F"/></svg>
